public/menuicons/icointercambios.svg

<svg width="42" height="42" viewBox="0 0 42 42" fill="none" xmlns="http://www.w3.org/2000/svg">
<g id="icointercambios">
<g id="GroupicIntercambios">
<path id="Vector 6" d="M22.5 29.5C23.0523 29.5 23.5 29.0523 23.5 28.5C23.5 27.9477 23.0523 27.5 22.5 27.5L22.5 29.5ZM14.2071 18.7929C13.8166 18.4024 13.1834 18.4024 12.7929 18.7929L6.42893 25.1569C6.03841 25.5474 6.03841 26.1805 6.42893 26.5711C6.81946 26.9616 7.45262 26.9616 7.84315 26.5711L13.5 20.9142L19.1569 26.5711C19.5474 26.9616 20.1805 26.9616 20.5711 26.5711C20.9616 26.1805 20.9616 25.5474 20.5711 25.1569L14.2071 18.7929ZM22.5 27.5L14.5 27.5L14.5 29.5L22.5 29.5L22.5 27.5ZM14.5 27.5L14.5 19.5L12.5 19.5L12.5 27.5L14.5 27.5ZM14.5 27.5L12.5 27.5C12.5 28.6046 13.3954 29.5 14.5 29.5L14.5 27.5Z" fill="white"/>
<path id="Vector 7" d="M19.5 12.5C18.9477 12.5 18.5 12.9477 18.5 13.5C18.5 14.0523 18.9477 14.5 19.5 14.5L19.5 12.5ZM27.7929 23.2071C28.1834 23.5976 28.8166 23.5976 29.2071 23.2071L35.5711 16.8431C35.9616 16.4526 35.9616 15.8195 35.5711 15.4289C35.1805 15.0384 34.5474 15.0384 34.1569 15.4289L28.5 21.0858L22.8431 15.4289C22.4526 15.0384 21.8195 15.0384 21.4289 15.4289C21.0384 15.8195 21.0384 16.4526 21.4289 16.8431L27.7929 23.2071ZM19.5 14.5L27.5 14.5L27.5 12.5L19.5 12.5L19.5 14.5ZM27.5 14.5L27.5 22.5L29.5 22.5L29.5 14.5L27.5 14.5ZM27.5 14.5L29.5 14.5C29.5 13.3954 28.6046 12.5 27.5 12.5L27.5 14.5Z" fill="white"/>
<g id="Rectangle 3" filter="url(#filter0_d_107_1032)">
<rect x="30" y="27" width="3" height="3" rx="1.5" transform="rotate(90 30 27)" fill="white"/>
</g>
<g id="Rectangle 6" filter="url(#filter1_d_107_1032)">
<rect x="12" y="12" width="3" height="3" rx="1.5" fill="white"/>
</g>
</g>
</g>
<defs>
<filter id="filter0_d_107_1032" x="15" y="15" width="27" height="27" filterUnits="userSpaceOnUse" color-interpolation-filters="sRGB">
<feFlood flood-opacity="0" result="BackgroundImageFix"/>
<feColorMatrix in="SourceAlpha" type="matrix" values="0 0 0 0 0 0 0 0 0 0 0 0 0 0 0 0 0 0 127 0" result="hardAlpha"/>
<feMorphology radius="4" operator="dilate" in="SourceAlpha" result="effect1_dropShadow_107_1032"/>
<feOffset/>
<feGaussianBlur stdDeviation="4"/>
<feComposite in2="hardAlpha" operator="out"/>
<feColorMatrix type="matrix" values="0 0 0 0 0.78125 0 0 0 0 0.5625 0 0 0 0 1 0 0 0 1 0"/>
<feBlend mode="normal" in2="BackgroundImageFix" result="effect1_dropShadow_107_1032"/>
<feBlend mode="normal" in="SourceGraphic" in2="effect1_dropShadow_107_1032" result="shape"/>
</filter>
<filter id="filter1_d_107_1032" x="0" y="0" width="27" height="27" filterUnits="userSpaceOnUse" color-interpolation-filters="sRGB">
<feFlood flood-opacity="0" result="BackgroundImageFix"/>
<feColorMatrix in="SourceAlpha" type="matrix" values="0 0 0 0 0 0 0 0 0 0 0 0 0 0 0 0 0 0 127 0" result="hardAlpha"/>
<feMorphology radius="4" operator="dilate" in="SourceAlpha" result="effect1_dropShadow_107_1032"/>
<feOffset/>
<feGaussianBlur stdDeviation="4"/>
<feComposite in2="hardAlpha" operator="out"/>
<feColorMatrix type="matrix" values="0 0 0 0 0.78125 0 0 0 0 0.5625 0 0 0 0 1 0 0 0 1 0"/>
<feBlend mode="normal" in2="BackgroundImageFix" result="effect1_dropShadow_107_1032"/>
<feBlend mode="normal" in="SourceGraphic" in2="effect1_dropShadow_107_1032" result="shape"/>
</filter>
</defs>
</svg>

<svg xmlns="http://www.w3.org/2000/svg" width="42" height="42" fill="none"><path fill="#fff" d="M22.5 29.5a1 1 0 1 0 0-2v2Zm-8.293-10.707a1 1 0 0 0-1.414 0l-6.364 6.364a1 1 0 1 0 1.414 1.414l5.657-5.657 5.657 5.657a1 1 0 0 0 1.414-1.414l-6.364-6.364ZM22.5 27.5h-8v2h8v-2Zm-8 0v-8h-2v8h2Zm0 0h-2a2 2 0 0 0 2 2v-2ZM19.5 12.5a1 1 0 1 0 0 2v-2Zm8.293 10.707a1 1 0 0 0 1.414 0l6.364-6.364a1 1 0 0 0-1.414-1.414L28.5 21.086l-5.657-5.657a1 1 0 0 0-1.414 1.414l6.364 6.364ZM19.5 14.5h8v-2h-8v2Zm8 0v8h2v-8h-2Zm0 0h2a2 2 0 0 0-2-2v2Z"/><g filter="url(#a)"><rect width="3" height="3" x="30" y="27" fill="#fff" rx="1.5" transform="rotate(90 30 27)"/></g><g filter="url(#b)"><rect width="3" height="3" x="12" y="12" fill="#fff" rx="1.5"/></g><defs><filter id="a" width="27" height="27" x="15" y="15" color-interpolation-filters="sRGB" filterUnits="userSpaceOnUse"><feFlood flood-opacity="0" result="BackgroundImageFix"/><feColorMatrix in="SourceAlpha" result="hardAlpha" values="0 0 0 0 0 0 0 0 0 0 0 0 0 0 0 0 0 0 127 0"/><feMorphology in="SourceAlpha" operator="dilate" radius="4" result="effect1_dropShadow_107_1032"/><feOffset/><feGaussianBlur stdDeviation="4"/><feComposite in2="hardAlpha" operator="out"/><feColorMatrix values="0 0 0 0 0.78125 0 0 0 0 0.5625 0 0 0 0 1 0 0 0 1 0"/><feBlend in2="BackgroundImageFix" result="effect1_dropShadow_107_1032"/><feBlend in="SourceGraphic" in2="effect1_dropShadow_107_1032" result="shape"/></filter><filter id="b" width="27" height="27" x="0" y="0" color-interpolation-filters="sRGB" filterUnits="userSpaceOnUse"><feFlood flood-opacity="0" result="BackgroundImageFix"/><feColorMatrix in="SourceAlpha" result="hardAlpha" values="0 0 0 0 0 0 0 0 0 0 0 0 0 0 0 0 0 0 127 0"/><feMorphology in="SourceAlpha" operator="dilate" radius="4" result="effect1_dropShadow_107_1032"/><feOffset/><feGaussianBlur stdDeviation="4"/><feComposite in2="hardAlpha" operator="out"/><feColorMatrix values="0 0 0 0 0.78125 0 0 0 0 0.5625 0 0 0 0 1 0 0 0 1 0"/><feBlend in2="BackgroundImageFix" result="effect1_dropShadow_107_1032"/><feBlend in="SourceGraphic" in2="effect1_dropShadow_107_1032" result="shape"/></filter></defs></svg>
